static/img/kroki/290cff65d25d537fd27a37f327187b11.svg

<?xml version="1.0" encoding="us-ascii" standalone="no"?><svg xmlns="http://www.w3.org/2000/svg" xmlns:xlink="http://www.w3.org/1999/xlink" contentStyleType="text/css" height="352px" preserveAspectRatio="none" style="width:1000px;height:352px;" version="1.1" viewBox="0 0 1000 352" width="1000px" zoomAndPan="magnify"><defs/><g><!--class aws_bedrock_agent_prompt--><g id="elem_aws_bedrock_agent_prompt"><rect codeLine="23" fill="#3D176E" height="39.7891" id="aws_bedrock_agent_prompt" rx="2.5" ry="2.5" style="stroke:#000D19;stroke-width:0.5;" width="276" x="717" y="7"/><ellipse cx="732" cy="26.8945" fill="#ADD1B2" rx="11" ry="11" style="stroke:#181818;stroke-width:1.0;"/><path d="M734.9688,32.5352 Q734.3906,32.832 733.75,32.9727 Q733.1094,33.1289 732.4063,33.1289 Q729.9063,33.1289 728.5781,31.4883 Q727.2656,29.832 727.2656,26.707 Q727.2656,23.582 728.5781,21.9258 Q729.9063,20.2695 732.4063,20.2695 Q733.1094,20.2695 733.75,20.4258 Q734.4063,20.582 734.9688,20.8789 L734.9688,23.5977 Q734.3438,23.0195 733.75,22.7539 Q733.1563,22.4727 732.5313,22.4727 Q731.1875,22.4727 730.5,23.5508 Q729.8125,24.6133 729.8125,26.707 Q729.8125,28.8008 730.5,29.8789 Q731.1875,30.9414 732.5313,30.9414 Q733.1563,30.9414 733.75,30.6758 Q734.3438,30.3945 734.9688,29.8164 L734.9688,32.5352 Z " fill="#000000"/><text fill="#D9B8FF" font-family="Helvetica" font-size="17" lengthAdjust="spacing" textLength="234" x="751" y="32.7798">aws_bedrock_agent_prompt</text></g><!--class aws_bedrock_custom_model--><g id="elem_aws_bedrock_custom_model"><rect codeLine="26" fill="#3D176E" height="39.7891" id="aws_bedrock_custom_model" rx="2.5" ry="2.5" style="stroke:#000D19;stroke-width:0.5;" width="280" x="551" y="106.79"/><ellipse cx="566" cy="126.6845" fill="#ADD1B2" rx="11" ry="11" style="stroke:#181818;stroke-width:1.0;"/><path d="M568.9688,132.3252 Q568.3906,132.622 567.75,132.7627 Q567.1094,132.9189 566.4063,132.9189 Q563.9063,132.9189 562.5781,131.2783 Q561.2656,129.622 561.2656,126.497 Q561.2656,123.372 562.5781,121.7158 Q563.9063,120.0595 566.4063,120.0595 Q567.1094,120.0595 567.75,120.2158 Q568.4063,120.372 568.9688,120.6689 L568.9688,123.3877 Q568.3438,122.8095 567.75,122.5439 Q567.1563,122.2627 566.5313,122.2627 Q565.1875,122.2627 564.5,123.3408 Q563.8125,124.4033 563.8125,126.497 Q563.8125,128.5908 564.5,129.6689 Q565.1875,130.7314 566.5313,130.7314 Q567.1563,130.7314 567.75,130.4658 Q568.3438,130.1845 568.9688,129.6064 L568.9688,132.3252 Z " fill="#000000"/><text fill="#D9B8FF" font-family="Helvetica" font-size="17" lengthAdjust="spacing" textLength="238" x="585" y="132.5698">aws_bedrock_custom_model</text></g><!--class aws_bedrock_foundation_model--><g id="elem_aws_bedrock_foundation_model"><rect codeLine="29" fill="#3D176E" height="39.7891" id="aws_bedrock_foundation_model" rx="2.5" ry="2.5" style="stroke:#000D19;stroke-width:0.5;" width="310" x="343" y="7"/><ellipse cx="358" cy="26.8945" fill="#ADD1B2" rx="11" ry="11" style="stroke:#181818;stroke-width:1.0;"/><path d="M360.9688,32.5352 Q360.3906,32.832 359.75,32.9727 Q359.1094,33.1289 358.4063,33.1289 Q355.9063,33.1289 354.5781,31.4883 Q353.2656,29.832 353.2656,26.707 Q353.2656,23.582 354.5781,21.9258 Q355.9063,20.2695 358.4063,20.2695 Q359.1094,20.2695 359.75,20.4258 Q360.4063,20.582 360.9688,20.8789 L360.9688,23.5977 Q360.3438,23.0195 359.75,22.7539 Q359.1563,22.4727 358.5313,22.4727 Q357.1875,22.4727 356.5,23.5508 Q355.8125,24.6133 355.8125,26.707 Q355.8125,28.8008 356.5,29.8789 Q357.1875,30.9414 358.5313,30.9414 Q359.1563,30.9414 359.75,30.6758 Q360.3438,30.3945 360.9688,29.8164 L360.9688,32.5352 Z " fill="#000000"/><text fill="#D9B8FF" font-family="Helvetica" font-size="17" lengthAdjust="spacing" textLength="268" x="377" y="32.7798">aws_bedrock_foundation_model</text></g><!--class aws_bedrock_model_customization_job--><g id="elem_aws_bedrock_model_customization_job"><rect codeLine="32" fill="#3D176E" height="39.7891" id="aws_bedrock_model_customization_job" rx="2.5" ry="2.5" style="stroke:#000D19;stroke-width:0.5;" width="370" x="7" y="206.58"/><ellipse cx="22" cy="226.4745" fill="#ADD1B2" rx="11" ry="11" style="stroke:#181818;stroke-width:1.0;"/><path d="M24.9688,232.1152 Q24.3906,232.412 23.75,232.5527 Q23.1094,232.7089 22.4063,232.7089 Q19.9063,232.7089 18.5781,231.0683 Q17.2656,229.412 17.2656,226.287 Q17.2656,223.162 18.5781,221.5058 Q19.9063,219.8495 22.4063,219.8495 Q23.1094,219.8495 23.75,220.0058 Q24.4063,220.162 24.9688,220.4589 L24.9688,223.1777 Q24.3438,222.5995 23.75,222.3339 Q23.1563,222.0527 22.5313,222.0527 Q21.1875,222.0527 20.5,223.1308 Q19.8125,224.1933 19.8125,226.287 Q19.8125,228.3808 20.5,229.4589 Q21.1875,230.5214 22.5313,230.5214 Q23.1563,230.5214 23.75,230.2558 Q24.3438,229.9745 24.9688,229.3964 L24.9688,232.1152 Z " fill="#000000"/><text fill="#D9B8FF" font-family="Helvetica" font-size="17" lengthAdjust="spacing" textLength="328" x="41" y="232.3598">aws_bedrock_model_customization_job</text></g><!--class aws_bedrock_provisioned_model_throughput--><g id="elem_aws_bedrock_provisioned_model_throughput"><rect codeLine="35" fill="#3D176E" height="39.7891" id="aws_bedrock_provisioned_model_throughput" rx="2.5" ry="2.5" style="stroke:#000D19;stroke-width:0.5;" width="419" x="411.5" y="206.58"/><ellipse cx="426.5" cy="226.4745" fill="#ADD1B2" rx="11" ry="11" style="stroke:#181818;stroke-width:1.0;"/><path d="M429.4688,232.1152 Q428.8906,232.412 428.25,232.5527 Q427.6094,232.7089 426.9063,232.7089 Q424.4063,232.7089 423.0781,231.0683 Q421.7656,229.412 421.7656,226.287 Q421.7656,223.162 423.0781,221.5058 Q424.4063,219.8495 426.9063,219.8495 Q427.6094,219.8495 428.25,220.0058 Q428.9063,220.162 429.4688,220.4589 L429.4688,223.1777 Q428.8438,222.5995 428.25,222.3339 Q427.6563,222.0527 427.0313,222.0527 Q425.6875,222.0527 425,223.1308 Q424.3125,224.1933 424.3125,226.287 Q424.3125,228.3808 425,229.4589 Q425.6875,230.5214 427.0313,230.5214 Q427.6563,230.5214 428.25,230.2558 Q428.8438,229.9745 429.4688,229.3964 L429.4688,232.1152 Z " fill="#000000"/><text fill="#D9B8FF" font-family="Helvetica" font-size="17" lengthAdjust="spacing" textLength="377" x="445.5" y="232.3598">aws_bedrock_provisioned_model_throughput</text></g><!--class aws_kms_key--><g id="elem_aws_kms_key"><rect codeLine="38" fill="#3D176E" height="39.7891" id="aws_kms_key" rx="2.5" ry="2.5" style="stroke:#000D19;stroke-width:0.5;" width="158" x="804" y="306.37"/><ellipse cx="819" cy="326.2645" fill="#ADD1B2" rx="11" ry="11" style="stroke:#181818;stroke-width:1.0;"/><path d="M821.9688,331.9052 Q821.3906,332.202 820.75,332.3427 Q820.1094,332.4989 819.4063,332.4989 Q816.9063,332.4989 815.5781,330.8583 Q814.2656,329.202 814.2656,326.077 Q814.2656,322.952 815.5781,321.2958 Q816.9063,319.6395 819.4063,319.6395 Q820.1094,319.6395 820.75,319.7958 Q821.4063,319.952 821.9688,320.2489 L821.9688,322.9677 Q821.3438,322.3895 820.75,322.1239 Q820.1563,321.8427 819.5313,321.8427 Q818.1875,321.8427 817.5,322.9208 Q816.8125,323.9833 816.8125,326.077 Q816.8125,328.1708 817.5,329.2489 Q818.1875,330.3114 819.5313,330.3114 Q820.1563,330.3114 820.75,330.0458 Q821.3438,329.7645 821.9688,329.1864 L821.9688,331.9052 Z " fill="#000000"/><text fill="#D9B8FF" font-family="Helvetica" font-size="17" lengthAdjust="spacing" textLength="116" x="838" y="332.1498">aws_kms_key</text></g><!--link aws_bedrock_agent_prompt to aws_bedrock_custom_model--><g id="link_aws_bedrock_agent_prompt_aws_bedrock_custom_model"><path codeLine="41" d="M822.6,47.22 C793.85,64.36 757.2135,86.2073 728.4835,103.3373 " fill="none" id="aws_bedrock_agent_prompt-to-aws_bedrock_custom_model" style="stroke:#1A83AF;stroke-width:2.0;"/><polygon fill="#1A83AF" points="723.33,106.41,733.1087,105.2366,727.6246,103.8494,729.0117,98.3653,723.33,106.41" style="stroke:#1A83AF;stroke-width:2.0;"/></g><!--link aws_bedrock_agent_prompt to aws_kms_key--><g id="link_aws_bedrock_agent_prompt_aws_kms_key"><path codeLine="42" d="M859.16,47.08 C865.98,79.66 879.28,148 884,206.58 C885.42,224.21 884.11,228.69 884,246.37 C883.87,266.78 883.6401,284.1607 883.4001,300.1407 " fill="none" id="aws_bedrock_agent_prompt-to-aws_kms_key" style="stroke:#1A83AF;stroke-width:2.0;"/><polygon fill="#1A83AF" points="883.31,306.14,887.4447,297.2011,883.3851,301.1406,879.4456,297.0809,883.31,306.14" style="stroke:#1A83AF;stroke-width:2.0;"/></g><!--link aws_bedrock_custom_model to aws_bedrock_model_customization_job--><g id="link_aws_bedrock_custom_model_aws_bedrock_model_customization_job"><path codeLine="43" d="M592.12,147.07 C504.75,164.19 383.888,187.8761 296.578,204.9861 " fill="none" id="aws_bedrock_custom_model-to-aws_bedrock_model_customization_job" style="stroke:#1A83AF;stroke-width:2.0;"/><polygon fill="#1A83AF" points="290.69,206.14,300.2912,208.3345,295.5967,205.1784,298.7528,200.4839,290.69,206.14" style="stroke:#1A83AF;stroke-width:2.0;"/></g><!--link aws_bedrock_custom_model to aws_bedrock_provisioned_model_throughput--><g id="link_aws_bedrock_custom_model_aws_bedrock_provisioned_model_throughput"><path codeLine="44" d="M677.17,147.01 C664.9,164.15 650.5507,184.1799 638.2907,201.3199 " fill="none" id="aws_bedrock_custom_model-to-aws_bedrock_provisioned_model_throughput" style="stroke:#1A83AF;stroke-width:2.0;"/><polygon fill="#1A83AF" points="634.8,206.2,643.2894,201.207,637.7089,202.1333,636.7826,196.5528,634.8,206.2" style="stroke:#1A83AF;stroke-width:2.0;"/></g><!--link aws_bedrock_custom_model to aws_kms_key--><g id="link_aws_bedrock_custom_model_aws_kms_key"><path codeLine="45" d="M756.98,147.04 C788.57,159.4 824.53,178.49 848,206.58 C872.24,235.6 879.1519,274.8342 881.4419,300.2642 " fill="none" id="aws_bedrock_custom_model-to-aws_kms_key" style="stroke:#1A83AF;stroke-width:2.0;"/><polygon fill="#1A83AF" points="881.98,306.24,885.1567,296.9175,881.5316,301.2602,877.1889,297.635,881.98,306.24" style="stroke:#1A83AF;stroke-width:2.0;"/></g><!--link aws_bedrock_foundation_model to aws_bedrock_custom_model--><g id="link_aws_bedrock_foundation_model_aws_bedrock_custom_model"><path codeLine="46" d="M536.13,47.22 C569.97,64.36 613.7878,86.5683 647.5978,103.6983 " fill="none" id="aws_bedrock_foundation_model-to-aws_bedrock_custom_model" style="stroke:#1A83AF;stroke-width:2.0;"/><polygon fill="#1A83AF" points="652.95,106.41,646.7295,98.7742,648.4898,104.1502,643.1138,105.9106,652.95,106.41" style="stroke:#1A83AF;stroke-width:2.0;"/></g><!--link aws_bedrock_foundation_model to aws_bedrock_model_customization_job--><g id="link_aws_bedrock_foundation_model_aws_bedrock_model_customization_job"><path codeLine="47" d="M468.1,47.2 C409.6,84.97 285.6609,165.0058 227.0609,202.8358 " fill="none" id="aws_bedrock_foundation_model-to-aws_bedrock_model_customization_job" style="stroke:#1A83AF;stroke-width:2.0;"/><polygon fill="#1A83AF" points="222.02,206.09,231.7507,204.5693,226.2207,203.3782,227.4118,197.8481,222.02,206.09" style="stroke:#1A83AF;stroke-width:2.0;"/></g><!--link aws_bedrock_foundation_model to aws_bedrock_provisioned_model_throughput--><g id="link_aws_bedrock_foundation_model_aws_bedrock_provisioned_model_throughput"><path codeLine="48" d="M500.33,46.9 C504.04,71.51 513.04,114.98 533,146.58 C548.23,170.7 568.05,188.3068 587.38,202.6368 " fill="none" id="aws_bedrock_foundation_model-to-aws_bedrock_provisioned_model_throughput" style="stroke:#1A83AF;stroke-width:2.0;"/><polygon fill="#1A83AF" points="592.2,206.21,587.3522,197.6369,588.1834,203.2323,582.5879,204.0635,592.2,206.21" style="stroke:#1A83AF;stroke-width:2.0;"/></g><!--link aws_bedrock_model_customization_job to aws_kms_key--><g id="link_aws_bedrock_model_customization_job_aws_kms_key"><path codeLine="49" d="M328.93,246.85 C470.97,266.96 682.2192,296.8493 797.9692,313.2293 " fill="none" id="aws_bedrock_model_customization_job-to-aws_kms_key" style="stroke:#1A83AF;stroke-width:2.0;"/><polygon fill="#1A83AF" points="803.91,314.07,795.5592,308.8484,798.9593,313.3694,794.4383,316.7695,803.91,314.07" style="stroke:#1A83AF;stroke-width:2.0;"/></g><!--SRC=[dPB1JuCm6CNl_1LDTbuo9BhjOe9B5hqindapXXJw5Igq9MtPiXd_Ts6WGLWPyy2btw_lU-_HX150m7DpG1nu24exEcKYnmfpv2ibzokPIOKcb6BgpRl3jHJc8h317D0ZP3imBC9TuZLXKIf0QtJJ6ZtWA8sLB0IfvOt2GfSZ4AP5hJAijM-COc5Xe6M6BCC5fLsoAphnY3k_Wnuc5G7L8BFPZBZBBd9nrM3kNsBBZe3STcaRQQ1dixVYH0swh8YMoLxGdxdLupCcX8aOtRRENcfFIe3wSxvDC97xYgOuq-qrse02QGuvh7gfOBaWT7uMVhB1JbHLX_1U1o4G9QCqm77v9e9SoV8Heq_7-Jh3H8KsaWTS4iXi3AssOSEa6EPEmqQH7UiB7pAquQMn7TCb1AIvQf8oM9paHSzkoiiF3lMnDUFqRUBw2yzVlq_lhIclkDviTQo5MHTQglY7qb1BLyYTYzBxhzVtDrvYJ2FZrKQtOdkJreA-0G00]--></g></svg>

<svg xmlns="http://www.w3.org/2000/svg" width="1000" height="352" viewBox="0 0 1000 352"><rect width="276" height="39.789" x="717" y="7" fill="#3D176E" rx="2.5" ry="2.5" style="stroke:#000d19;stroke-width:.5"/><circle cx="732" cy="26.895" r="11" fill="#ADD1B2" style="stroke:#181818;stroke-width:1"/><path d="M734.969 32.535q-.578.297-1.219.438-.64.156-1.344.156-2.5 0-3.828-1.64-1.312-1.657-1.312-4.782t1.312-4.781q1.328-1.656 3.828-1.656.703 0 1.344.156.656.156 1.219.453v2.719q-.625-.578-1.219-.844-.594-.281-1.219-.281-1.343 0-2.031 1.078-.687 1.062-.687 3.156t.687 3.172q.688 1.062 2.031 1.062.625 0 1.219-.265.594-.281 1.219-.86z"/><text x="751" y="32.78" fill="#D9B8FF" font-family="Helvetica" font-size="17" textLength="234">aws_bedrock_agent_prompt</text><rect width="280" height="39.789" x="551" y="106.79" fill="#3D176E" rx="2.5" ry="2.5" style="stroke:#000d19;stroke-width:.5"/><circle cx="566" cy="126.684" r="11" fill="#ADD1B2" style="stroke:#181818;stroke-width:1"/><path d="M568.969 132.325q-.578.297-1.219.438-.64.156-1.344.156-2.5 0-3.828-1.64-1.312-1.657-1.312-4.782t1.312-4.781q1.328-1.656 3.828-1.656.703 0 1.344.156.656.156 1.219.453v2.719q-.625-.579-1.219-.844-.594-.281-1.219-.281-1.343 0-2.031 1.078-.687 1.062-.687 3.156t.687 3.172q.688 1.062 2.031 1.062.625 0 1.219-.265.594-.281 1.219-.86z"/><text x="585" y="132.57" fill="#D9B8FF" font-family="Helvetica" font-size="17" textLength="238">aws_bedrock_custom_model</text><rect width="310" height="39.789" x="343" y="7" fill="#3D176E" rx="2.5" ry="2.5" style="stroke:#000d19;stroke-width:.5"/><circle cx="358" cy="26.895" r="11" fill="#ADD1B2" style="stroke:#181818;stroke-width:1"/><path d="M360.969 32.535q-.578.297-1.219.438-.64.156-1.344.156-2.5 0-3.828-1.64-1.312-1.657-1.312-4.782t1.312-4.781q1.328-1.656 3.828-1.656.703 0 1.344.156.656.156 1.219.453v2.719q-.625-.578-1.219-.844-.594-.281-1.219-.281-1.344 0-2.031 1.078-.687 1.062-.687 3.156t.687 3.172q.688 1.062 2.031 1.062.625 0 1.219-.265.594-.281 1.219-.86z"/><text x="377" y="32.78" fill="#D9B8FF" font-family="Helvetica" font-size="17" textLength="268">aws_bedrock_foundation_model</text><rect width="370" height="39.789" x="7" y="206.58" fill="#3D176E" rx="2.5" ry="2.5" style="stroke:#000d19;stroke-width:.5"/><circle cx="22" cy="226.475" r="11" fill="#ADD1B2" style="stroke:#181818;stroke-width:1"/><path d="M24.969 232.115q-.578.297-1.219.438-.64.156-1.344.156-2.5 0-3.828-1.64-1.312-1.657-1.312-4.782t1.312-4.781q1.328-1.656 3.828-1.656.703 0 1.344.156.656.156 1.219.453v2.719q-.625-.578-1.219-.844-.594-.281-1.219-.281-1.343 0-2.031 1.078-.687 1.062-.687 3.156t.687 3.172q.688 1.062 2.031 1.062.625 0 1.219-.265.594-.281 1.219-.86z"/><text x="41" y="232.36" fill="#D9B8FF" font-family="Helvetica" font-size="17" textLength="328">aws_bedrock_model_customization_job</text><rect width="419" height="39.789" x="411.5" y="206.58" fill="#3D176E" rx="2.5" ry="2.5" style="stroke:#000d19;stroke-width:.5"/><circle cx="426.5" cy="226.475" r="11" fill="#ADD1B2" style="stroke:#181818;stroke-width:1"/><path d="M429.469 232.115q-.578.297-1.219.438-.64.156-1.344.156-2.5 0-3.828-1.64-1.312-1.657-1.312-4.782t1.312-4.781q1.328-1.656 3.828-1.656.703 0 1.344.156.656.156 1.219.453v2.719q-.625-.578-1.219-.844-.594-.281-1.219-.281-1.344 0-2.031 1.078-.687 1.062-.687 3.156t.687 3.172q.688 1.062 2.031 1.062.625 0 1.219-.265.594-.281 1.219-.86z"/><text x="445.5" y="232.36" fill="#D9B8FF" font-family="Helvetica" font-size="17" textLength="377">aws_bedrock_provisioned_model_throughput</text><rect width="158" height="39.789" x="804" y="306.37" fill="#3D176E" rx="2.5" ry="2.5" style="stroke:#000d19;stroke-width:.5"/><circle cx="819" cy="326.264" r="11" fill="#ADD1B2" style="stroke:#181818;stroke-width:1"/><path d="M821.969 331.905q-.578.297-1.219.438-.64.156-1.344.156-2.5 0-3.828-1.64-1.312-1.657-1.312-4.782t1.312-4.781q1.328-1.656 3.828-1.656.703 0 1.344.156.656.156 1.219.453v2.719q-.625-.579-1.219-.844-.594-.281-1.219-.281-1.343 0-2.031 1.078-.687 1.062-.687 3.156t.687 3.172q.688 1.062 2.031 1.062.625 0 1.219-.265.594-.281 1.219-.86z"/><text x="838" y="332.15" fill="#D9B8FF" font-family="Helvetica" font-size="17" textLength="116">aws_kms_key</text><path fill="none" d="M822.6 47.22c-28.75 17.14-65.387 38.987-94.116 56.117" style="stroke:#1a83af;stroke-width:2"/><path fill="#1A83AF" d="m723.33 106.41 9.779-1.173-5.484-1.388 1.387-5.484z" style="stroke:#1a83af;stroke-width:2"/><path fill="none" d="M859.16 47.08C865.98 79.66 879.28 148 884 206.58c1.42 17.63.11 22.11 0 39.79-.13 20.41-.36 37.79-.6 53.77" style="stroke:#1a83af;stroke-width:2"/><path fill="#1A83AF" d="m883.31 306.14 4.135-8.939-4.06 3.94-3.94-4.06z" style="stroke:#1a83af;stroke-width:2"/><path fill="none" d="M592.12 147.07c-87.37 17.12-208.232 40.806-295.542 57.916" style="stroke:#1a83af;stroke-width:2"/><path fill="#1A83AF" d="m290.69 206.14 9.601 2.195-4.694-3.157 3.156-4.694z" style="stroke:#1a83af;stroke-width:2"/><path fill="none" d="M677.17 147.01c-12.27 17.14-26.62 37.17-38.88 54.31" style="stroke:#1a83af;stroke-width:2"/><path fill="#1A83AF" d="m634.8 206.2 8.49-4.993-5.581.926-.926-5.58z" style="stroke:#1a83af;stroke-width:2"/><path fill="none" d="M756.98 147.04c31.59 12.36 67.55 31.45 91.02 59.54 24.24 29.02 31.152 68.254 33.442 93.684" style="stroke:#1a83af;stroke-width:2"/><path fill="#1A83AF" d="m881.98 306.24 3.177-9.322-3.625 4.342-4.343-3.625z" style="stroke:#1a83af;stroke-width:2"/><path fill="none" d="M536.13 47.22c33.84 17.14 77.658 39.348 111.468 56.478" style="stroke:#1a83af;stroke-width:2"/><path fill="#1A83AF" d="m652.95 106.41-6.22-7.636 1.76 5.376-5.376 1.76z" style="stroke:#1a83af;stroke-width:2"/><path fill="none" d="M468.1 47.2c-58.5 37.77-182.44 117.806-241.04 155.636" style="stroke:#1a83af;stroke-width:2"/><path fill="#1A83AF" d="m222.02 206.09 9.73-1.52-5.53-1.192 1.192-5.53z" style="stroke:#1a83af;stroke-width:2"/><path fill="none" d="M500.33 46.9c3.71 24.61 12.71 68.08 32.67 99.68 15.23 24.12 35.05 41.727 54.38 56.057" style="stroke:#1a83af;stroke-width:2"/><path fill="#1A83AF" d="m592.2 206.21-4.848-8.573.831 5.595-5.595.832z" style="stroke:#1a83af;stroke-width:2"/><path fill="none" d="M328.93 246.85c142.04 20.11 353.29 50 469.04 66.38" style="stroke:#1a83af;stroke-width:2"/><path fill="#1A83AF" d="m803.91 314.07-8.35-5.222 3.4 4.521-4.522 3.4z" style="stroke:#1a83af;stroke-width:2"/></svg>
